src/img/icons/soc_4.svg

<svg width="40" height="40" viewBox="0 0 40 40" fill="none" xmlns="http://www.w3.org/2000/svg">
<g id="5">
<rect id="Rectangle 18623" x="0.5" y="0.5" width="39" height="39" rx="19.5" stroke="#E4DEE0"/>
<path id="path64" d="M20 11C15.0294 11 11 15.0295 11 20C11 23.8129 13.3722 27.0723 16.7201 28.3837C16.6415 27.6716 16.5704 26.5765 16.7514 25.7991C16.9149 25.0967 17.8067 21.3255 17.8067 21.3255C17.8067 21.3255 17.5375 20.7864 17.5375 19.9893C17.5375 18.7379 18.2629 17.8036 19.166 17.8036C19.9339 17.8036 20.3047 18.38 20.3047 19.0713C20.3047 19.8435 19.8131 20.998 19.5594 22.0679C19.3473 22.9637 20.0086 23.6942 20.8921 23.6942C22.4917 23.6942 23.7213 22.0076 23.7213 19.5729C23.7213 17.418 22.1729 15.9114 19.962 15.9114C17.4012 15.9114 15.8981 17.8321 15.8981 19.8171C15.8981 20.5906 16.196 21.4201 16.5679 21.871C16.6414 21.9601 16.6522 22.0382 16.6303 22.1292C16.562 22.4134 16.4101 23.0247 16.3803 23.1498C16.3411 23.3146 16.2499 23.3495 16.0793 23.2702C14.9553 22.747 14.2525 21.1035 14.2525 19.7835C14.2525 16.9445 16.3153 14.3372 20.1992 14.3372C23.3212 14.3372 25.7475 16.562 25.7475 19.5352C25.7475 22.637 23.7918 25.1332 21.0773 25.1332C20.1653 25.1332 19.308 24.6594 19.0145 24.0998C19.0145 24.0998 18.5632 25.8181 18.4538 26.2393C18.2506 27.021 17.7021 28.0009 17.3352 28.5987C18.1773 28.8594 19.0722 29 20 29C24.9706 29 29 24.9705 29 20C29 15.0295 24.9706 11 20 11Z" fill="#AE9BA5"/>
</g>
</svg>

<svg xmlns="http://www.w3.org/2000/svg" width="40" height="40" fill="none">
  <rect width="39" height="39" x=".5" y=".5" stroke="#E4DEE0" rx="19.5"/>
  <path fill="#AE9BA5" d="M20 11a9 9 0 0 0-3.28 17.384c-.078-.712-.15-1.808.031-2.585.164-.702 1.056-4.473 1.056-4.473s-.27-.54-.27-1.337c0-1.251.726-2.185 1.629-2.185.768 0 1.139.576 1.139 1.267 0 .772-.492 1.927-.746 2.997-.212.896.45 1.626 1.333 1.626 1.6 0 2.83-1.686 2.83-4.121 0-2.155-1.55-3.662-3.76-3.662-2.56 0-4.064 1.921-4.064 3.906 0 .774.298 1.603.67 2.054a.27.27 0 0 1 .062.258c-.068.284-.22.896-.25 1.02-.039.166-.13.2-.3.121-1.125-.523-1.827-2.166-1.827-3.486 0-2.84 2.062-5.447 5.946-5.447 3.122 0 5.548 2.225 5.548 5.198 0 3.102-1.955 5.598-4.67 5.598-.912 0-1.769-.474-2.063-1.033l-.56 2.14c-.203.781-.752 1.76-1.119 2.359A9 9 0 1 0 20 11Z"/>
</svg>
